svg/Octicons/microscope.svg

<svg xmlns="http://www.w3.org/2000/svg" viewBox="0 0 768 1024"><path d="m617 896c86.31-18.75 151-100 151-192 0-58.44-26.625-110.12-67.875-145.37 2.375-15.25 3.875-30.75 3.875-46.625 0-104.84-49.875-197.87-128-256l64-64v-64l64-64-64-64-64 64h-64l-256 256-128 64v128l64 64h128l64-128 96-96c55.5 33.406 96 90.44 96 160-106.06 0-192 85.938-192 192h-384v64h192c19.12 14.25 42.06 22.12 64 32v96h-128l-128 128h768l-128-128h-23m-105-192c0-35.37 28.625-64 64-64s64 28.625 64 64c0 35.31-28.625 64-64 64s-64-28.688-64-64"/></svg>

<svg height="1024" width="768" xmlns="http://www.w3.org/2000/svg">
  <path d="M617 896c86.312-18.75 151-100 151-192 0-58.438-26.625-110.125-67.875-145.375C702.5 543.375 704 527.875 704 512c0-104.844-49.875-197.875-128-256l64-64v-64l64-64L640 0l-64 64h-64L256 320l-128 64v128l64 64h128l64-128 96-96c55.5 33.406 96 90.438 96 160-106.062 0-192 85.938-192 192H0v64h192c19.125 14.25 42.062 22.125 64 32v96H128L0 1024h768L640 896H617zM512 704c0-35.375 28.625-64 64-64s64 28.625 64 64c0 35.312-28.625 64-64 64S512 739.312 512 704z" />
</svg>
